X: 9
T:Scotch Hornpipe,A. FK.09
M:C
L:1/8
Q:160
C:"MS 18"
S:Kidson's H'pipe MS,early 20thC.
R:Hornpipe
O:England
A:Leeds
N:The key signature of G should be D major - unless the flat 7th is the
N:Scotch feature...JB.
Z:vmp.John Bagnall
K:G
GE | D3 F ABAF | A2 d2 d2 F2 | G3 B AFdF | E2 e2 e2 de |!
 fedf edce | dcBA BAGF | EFGE AGFE | D2 d2 d2 ::!
de | fedB ABAF | A2 d2 d2 F2 | G3 B AFdF | E2 e2 e2 de |!
 fedf edce | dcBA BAGF |EFGE AGFE | D2 d2 d2 :|]
